X:1
T:Title
%%score [ 1 2 3 4 ]
L:1/8
Q:1/4=120
M:2/2
K:G
V:1 treble nm="S."
V:2 treble nm="A."
V:3 treble-8 nm="T."
V:4 bass nm="B."
V:1
!mf! d2 | c2"^Say, Love" B2 A2 G2 | A2 A2 G2 G2 | F2 G2 A2 d2 | d2 ^c2 d4 | %5
w: Say,|Love, if e- ver|thou didst find A|wo- man with a|con- stant mind,|
w: To|her then yield thy|shafts and bow, That|can com- mand af-|fec- tions so:|
!p! A2"^John Dowland""^(1563-1626)" B2 !courtesy!=c4 |[M:4/4] z4 z2 z!mf! B | A2 G2 F2 G2 | %8
w: None but one,|And|what should that rare|
w: Love is free,|So|are her thoughts that|
 A2 B2 A2 c2 | B2 A2 ^G2 A2 | B2 c2 B4 | z2!p! c2 z2 A2 | z2 B2 z2 G2 | G2!mp! G2 G2 G2- | %14
w: mir- ror be, Some|god- dess or some|queen is she,|She, she,|she, she,|she, she and on|
w: van- quish thee, There|is no queen of|love but she,||||
 G2 F2 G2!mf! G2 | G2 G2 G2 G2 | G2 G2 G4 | G8 |] %18
w: * ly she, She|on- ly queen of|love and beau-|ty.|
w: ||||
V:2
!mf! G2 | G2 G2 F2 G2 | G2 F2 G2 D2 | D2 (CB,) A,2 A2 | A3 G F4 |!p! =F2 D2 C4 | %6
w: Say,|Love, if e- ver|thou didst find A|wo- man * with a|con- stant mind,|None but one,|
w: To|her then yield thy|shafts and bow, That|can com * mand af-|fec- tions so:|Love is free,|
[M:4/4] z4 z2 z!mf! D | D2 D2 D2 D2 | D2 D2 D2 E2 | E2 E2 E2 E2 | E2 E2 E4 |!p! E2 z2 D2 z2 | %12
w: And|what should that rare|mir- ror be, Some|god- dess or some|queen is she,|She, she,|
w: So|are her thoughts that|van- quish thee, There|is no queen of|love but she,||
 D2 z2 E2 z2 | C2!mp! D2 E2 D2 | C3 C B,2!mf! D2 | E2 D2 C2 B,2 | C2 D2 E4 | D8 |] %18
w: she, she,|she, she, she and|on- ly she, She|on- ly queen of|love and beau-|ty.|
w: ||||||
V:3
!mf! B2 | e2 d2 d2 B(c- | cA)(dc) B2 B2 | A2 e2 d2 f2 | e2 e2 d4 | z8 | %6
w: Say,|Love, if e- ver thou|* * didst * find A|wo- man with a|con- stant mind,||
w: To|her then yield thy shafts|* * and * bow, That|can com- mand af-|fec- tions so:||
[M:4/4][K:treble-8]!p! G2 A2 B3!mf! G | F2 G2 A2 B2 | A2 G2 F2 A2 | ^G2 A2 B2 c2 | B2 A2 ^G4 | %11
w: None but she, And|what should that rare|mir- ror be, Some|god- dess or some|queen is she,|
w: Love is free, So|are her thoughts that|van- quish thee, There|is no queen of|love but she,|
!p! A2 z2 F2 z2 | G2 z2 G2 z2 | e2!mp! d2 c2 B2 | A4 G2!mf! B2 | c2 B2 e2 d2 | (e2 d2- d)G c2 | %17
w: She, she,|she, she,|she, she and on-|ly she, She|on- ly queen of|love * * and beau-|
w: ||||||
 B8 |] %18
w: ty.|
w: |
V:4
!mf! G,,2 | C,2 G,,2 D,2 E,2 | D,2 D,2 G,,2 G,2 | D,2 E,2 F,2 D,2 | A,2 A,,2 D,4 | z8 | %6
w: Say,|Love, if e- ver|thou didst find A|wo- man with a|con- stant mind,||
w: To|her then yield thy|shafts and bow, That|can com- mand af-|fec- tions so:||
[M:4/4]!p! E,2 D,2 G,,3!mf! G,, | D,2 G,,2 D,2 G,2 | F,2 G,2 D,2 A,,2 | E,2 A,,2 E,2 A,2 | %10
w: None but she, And|what should that rare|mir- ror be, Some|god- dess or some|
w: Love is free, So|are her thoughts that|van- quish thee, There|is no queen of|
 ^G,2 A,2 E,4 |!p! A,,2 z2 D,2 z2 |"^This edition  Andrew Sims 2000" G,,2 z2 C,2 z2 | %13
w: queen is she,|She, she,|she, she,|
w: love but she,|||
 C,2!mp! B,,2 C,2 G,,2 | D,2 D,2 G,,2!mf! G,2 | E,2 G,2 C,2 G,,2 | C,2 B,,2 C,4 | G,,8 |] %18
w: she, she, she and|on- ly she, She|on- ly queen of|love and beau-|ty.|
w: |||||

